X: 341
T: Sadie at the Back Door
B: canberra pickers and fiddlers
B: tunes
L:1/8
Q: 1/4=100
K:D
V:1 
|: "D"a2g2 fgfe |d3e d2fg | a2g2 fed2|"C"=c3d c2e2 |
"D"a2g2 fed2 |"C"=c4B4 | =c2Bc BAFE| "D"D8 ||
"D"a2g2 fgfe |d3e d2fg | abag fe d2|"C"=c3d cdeg |
"D"a2g2 fed2 |"C"=c2dc B2cB | =c2Bc BAFE| "D"D8 ||
|: "D"F2FE D4 |FGFE D4 | "C"=c2B2 ABAF |"D"D3E D4 |
 "D"F2FE D4 |"C"=c4B4 |[1 =c2Bc BAFE| "D"D8:|[2 f3d BAFE|"D"D8|]
% abcbook-tune_id 6298c2876f30bbe5a8570d9e
% abcbook-tune_composer_id 
% abcbook-link-0 https://www.youtube.com/watch?v=AHuszPR7QTA
% abcbook-link-title-0 Sadie at the Back Door
% abcbook-boost 0
% abcbook-difficulty 0
% abcbook-tags old time tunes
% abcbook-tablature 
% abcbook-transpose 
% abcbook-tuning ADAE
% abcbook-lastupdated 1738709275982
% abcbook-src-url 
% abcbook-soundfonts 
% abcbook-repeats 1


